X:0652
T:Queen Mary's Lamentation.
S:Aird's Airs v4 (NLS Glen.16b)
M:3/4
L:1/8
Q:1/4=100 "Slow"
I: ||
Z:Jack Campin * www.campin.me.uk * 2009
K:G
 GB   |   d4       BG |  (A2  B2  c2) |   c2 B2      b>g|e<g g2\
(ec)  |   A3      fac'|   b<d'g<b e>g |   d<BB<G    TA2 |G4
 GB   |   d4       BG |   A2  B2  c2  |   cB4         G |d4   \   
 e>d  |   d<B`B<G TA2 |   G4      d>e |  =f4         dB |A2  A3
 B/c/ |{c}B4       GB |   d4      e>d |   d<B``B<G  TA2 |G4\
 bg   |   e<g gf```ac'|   b<d'g<b e>g |  (d<B)(B<G) TA2 |G4
 d>e  |  =f4       dB |   A2  A3(B/c/)|{c}B4         G2 |d4\
 BG   |   D4       d>B|{B}A4     (GB) |   d4         BG |e2   f2    
 g2   |  Hf4       g>e|   d4      e>d |   d<B``B<G  TA2 |G4\
(d'>b)|   e<a a2   eA |A3       (cBd) |   e<g``B<G   A>B|G4|]
<end>
<start>
